X:3480
T:Lady Haddo
O:england
C:M Macdonald
B:The Beauties of Niel Gow (c1819)
N:Composer played bass with Niel Gow
M:4/4
L:1/8
K:C
F|E/F/G G2 c>GA>G|c/B/A/B/ cE D/D/D DF|E/F/G G2 c>GA>G|\
c/B/A/B/ cE C/C/C C:|]
f|egcg a/g/f/e/ gc|f<ag>e d/d/d df|egcg a/g/f/e/ gc|f<ag>e c/c/c cg|
egcg a/g/f/e/ gc|f<ag>e d/d/d de|c>edB c>A GE|FAG>E C/C/C C|]


